assets/icons/24px/stroke/bell-24px.svg

<svg width="24" height="24" viewBox="0 0 24 24" fill="none" xmlns="http://www.w3.org/2000/svg">
<path fill-rule="evenodd" clip-rule="evenodd" d="M4.99999 8.49999C5.00001 4.634 8.13401 1.5 12 1.5C15.866 1.5 19 4.63401 19 8.50001V10.7756C19 10.7787 19.0007 10.7818 19.002 10.7847L20.1573 13.2878C20.3472 13.6992 20.5061 14.0435 20.6195 14.3278C20.7345 14.6162 20.835 14.9193 20.8629 15.2401C20.9808 16.596 20.1712 17.8614 18.8906 18.3226C18.5877 18.4316 18.2704 18.4674 17.9603 18.4838C17.6546 18.5 17.2754 18.5 16.8224 18.5H7.17764C6.72461 18.5 6.34538 18.5 6.03966 18.4838C5.72961 18.4674 5.41228 18.4316 5.10934 18.3225C3.82883 17.8614 3.01919 16.596 3.13709 15.2401C3.16499 14.9193 3.26552 14.6162 3.38053 14.3278C3.49393 14.0435 3.65286 13.6991 3.84271 13.2878L4.99799 10.7847C4.9993 10.7818 4.99999 10.7787 4.99999 10.7756L4.99999 8.49999ZM12 3.5C9.23858 3.5 7 5.73857 6.99999 8.49999L6.99999 10.7756C6.99998 11.0681 6.9365 11.3572 6.81391 11.6228L5.66992 14.1015C5.46584 14.5436 5.32964 14.8395 5.23826 15.0687C5.14625 15.2994 5.13193 15.3863 5.12957 15.4134C5.09027 15.8653 5.36015 16.2871 5.78699 16.4408C5.81255 16.4501 5.89745 16.4735 6.1455 16.4866C6.39184 16.4997 6.7176 16.5 7.20458 16.5H16.7954C17.2824 16.5 17.6082 16.4997 17.8545 16.4866C18.1025 16.4735 18.1874 16.4501 18.213 16.4409C18.6399 16.2871 18.9097 15.8653 18.8704 15.4134C18.8681 15.3863 18.8538 15.2994 18.7617 15.0687C18.6704 14.8395 18.5342 14.5436 18.3301 14.1015L17.1861 11.6228C17.0635 11.3572 17 11.0681 17 10.7756V8.50001C17 5.73858 14.7614 3.5 12 3.5Z" fill="white"/>
<path fill-rule="evenodd" clip-rule="evenodd" d="M8.01358 20.8356C8.10437 20.2909 8.6196 19.9228 9.16437 20.0136L9.86279 20.13C11.2778 20.3659 12.7221 20.3659 14.1372 20.13L14.8356 20.0136C15.3803 19.9228 15.8956 20.2909 15.9864 20.8356C16.0772 21.3804 15.7091 21.8956 15.1644 21.9864L14.466 22.1028C12.8332 22.375 11.1667 22.375 9.53399 22.1028L8.83557 21.9864C8.2908 21.8956 7.92278 21.3804 8.01358 20.8356Z" fill="white"/>
</svg>

<svg width="24" height="24" fill="none" xmlns="http://www.w3.org/2000/svg"><path fill-rule="evenodd" clip-rule="evenodd" d="M5 8.5a7 7 0 0 1 14 0v2.276c0 .003 0 .006.002.009l1.155 2.503c.19.411.35.755.462 1.04.116.288.216.591.244.912a3 3 0 0 1-1.972 3.083 3.23 3.23 0 0 1-.93.16c-.306.017-.686.017-1.139.017H7.178c-.453 0-.833 0-1.138-.016a3.228 3.228 0 0 1-.93-.162 3 3 0 0 1-1.973-3.082 3.23 3.23 0 0 1 .244-.912c.113-.284.272-.629.462-1.04l1.155-2.503a.022.022 0 0 0 .002-.01V8.5zm7-5a5 5 0 0 0-5 5v2.276c0 .292-.064.581-.186.847L5.67 14.102c-.204.442-.34.737-.432.967-.092.23-.106.317-.108.344a1 1 0 0 0 .657 1.028c.026.01.11.033.359.046.246.013.572.013 1.059.013h9.59c.487 0 .813 0 1.06-.013.247-.013.332-.037.358-.046a1 1 0 0 0 .657-1.028c-.002-.027-.016-.114-.108-.344-.092-.23-.228-.525-.432-.968l-1.144-2.478a2.022 2.022 0 0 1-.186-.847V8.5a5 5 0 0 0-5-5zM8.014 20.836a1 1 0 0 1 1.15-.822l.699.116c1.415.236 2.86.236 4.274 0l.699-.116a1 1 0 0 1 .328 1.972l-.698.117c-1.633.272-3.3.272-4.932 0l-.698-.117a1 1 0 0 1-.822-1.15z" fill="#fff"/></svg>
